X: 704
T: THE WALLS OF LISCARROLL
M:6/8
L:1/8
B:O'NEILL'S 704
N:"collected by Carey"
Z:Transcribed by A. LEE WORMAN
K:D
A|d>cA A>GE|G>EE D2 E|G>EE =c>EE|GAB =c2 e|
d>cA A>GE|G>EE D2 E|G>EE =c>EE|D>ED D2:|
||A|d>cd ecA|d>cd ecA|=c>[Bd]c c>BA|G>AB cGE|
A>de fed|{f}e>dc dcA|G>EE =c>EE|D>ED D2:|


